X:254
T: ES REISTE WOL EIN FASSBINDER
N: E0130A
O: Europa, Mitteleuropa, Deutschland
R: erzaehlendes Volks - Lied, Schalk -, Schelmen - Lied, Liebe; Handwerk
M: 4/4
L: 1/8
K: G
D2 | G2GGG2A2 | B2A2G2
AB | c2c2B2AG | A2F2D2
D2 | A2AAA2c2 | B2A2G2
AB | c2c2B2AG | A2F2D2z
D | G2DGB2GB | d4
c4 | B2ABA2A2 | G4z2

